packages/core/src/svgs/tokens/mono/BORING.svg

<svg width="24" height="24" viewBox="0 0 24 24" fill="none" xmlns="http://www.w3.org/2000/svg">
<path d="M12.0017 22C13.4485 21.9997 14.8781 21.6853 16.1916 21.0788C17.5051 20.4721 18.6715 19.5878 19.61 18.4866C20.5485 17.3854 21.2369 16.0937 21.6276 14.7006C22.0184 13.3076 22.1021 11.8462 21.8731 10.4176C21.6442 8.98901 21.108 7.62708 20.3015 6.42587C19.495 5.22464 18.4375 4.21273 17.2018 3.45998C15.9663 2.70723 14.5821 2.23157 13.1447 2.06583C11.7074 1.90009 10.2512 2.04823 8.87667 2.5V12.0001C8.87667 12.6181 9.05996 13.2223 9.40337 13.7362C9.74666 14.2501 10.2348 14.6506 10.8058 14.8871C11.3768 15.1237 12.0052 15.1855 12.6114 15.0649C13.2175 14.9444 13.7743 14.6468 14.2113 14.2097C14.6484 13.7727 14.9461 13.2159 15.0667 12.6096C15.1873 12.0034 15.1253 11.3752 14.8887 10.8041C14.6523 10.2331 14.2517 9.74504 13.7378 9.4016C13.2239 9.05828 12.6197 8.87501 12.0017 8.87501H10.1267V7.62501H12.0017C12.8669 7.62501 13.7129 7.88159 14.4323 8.36233C15.1518 8.84306 15.7126 9.52629 16.0436 10.3257C16.3748 11.1252 16.4614 12.0049 16.2927 12.8535C16.1238 13.7022 15.7072 14.4817 15.0952 15.0936C14.4835 15.7054 13.7038 16.1222 12.8552 16.2909C12.0065 16.4598 11.1268 16.3732 10.3274 16.042C9.52806 15.7108 8.84472 15.1501 8.364 14.4307C7.88327 13.7111 7.62668 12.8653 7.62668 12.0001V3.00001C7.18918 3.21876 6.77667 3.4625 6.37668 3.73126V12.0001C6.37668 13.1125 6.70657 14.2001 7.32466 15.1251C7.94274 16.0501 8.82124 16.7711 9.84903 17.1968C10.8769 17.6225 12.008 17.7339 13.0991 17.5169C14.1902 17.2999 15.1925 16.7641 15.9791 15.9775C16.7658 15.1907 17.3016 14.1886 17.5186 13.0975C17.7357 12.0062 17.6243 10.8752 17.1985 9.84741C16.7728 8.81958 16.0518 7.94108 15.1267 7.32299C14.2017 6.7049 13.1142 6.375 12.0017 6.375H10.1267V5.125H12.0017C13.3614 5.125 14.6907 5.52822 15.8212 6.28365C16.9519 7.03908 17.833 8.11281 18.3533 9.36908C18.8736 10.6253 19.0099 12.0076 18.7446 13.3413C18.4793 14.6749 17.8245 15.8999 16.863 16.8614C15.9016 17.8229 14.6766 18.4777 13.3429 18.743C12.0093 19.0082 10.6269 18.872 9.3707 18.3517C8.11449 17.8314 7.04076 16.9501 6.28532 15.8196C5.52989 14.6889 5.12667 13.3598 5.12667 12.0001V4.73751C3.67327 6.11323 2.66605 7.8934 2.23533 9.8477C1.80461 11.8022 1.97019 13.8408 2.71066 15.7C3.45112 17.5592 4.7324 19.1535 6.38877 20.2767C8.04515 21.3999 10.0004 22.0001 12.0017 22ZM13.8767 12.0001C13.8767 12.4973 13.6792 12.9742 13.3275 13.3258C12.9758 13.6774 12.499 13.875 12.0017 13.875C11.5044 13.875 11.0275 13.6774 10.6759 13.3258C10.3242 12.9742 10.1267 12.4973 10.1267 12.0001V10.1251H12.0017C12.499 10.1251 12.9758 10.3225 13.3275 10.6741C13.6792 11.0257 13.8767 11.5028 13.8767 12.0001Z" fill="white"/>
</svg>

<svg xmlns="http://www.w3.org/2000/svg" width="24" height="24" fill="none" viewBox="0 0 24 24">
    <path fill="#fff" d="M12.002 22A10 10 0 1 0 8.877 2.5V12a3.125 3.125 0 1 0 3.125-3.125h-1.875v-1.25h1.875A4.375 4.375 0 1 1 7.627 12V3c-.438.219-.85.462-1.25.731v8.27a5.625 5.625 0 1 0 5.625-5.626h-1.875v-1.25h1.875A6.875 6.875 0 1 1 5.127 12V4.738A10 10 0 0 0 12.002 22m1.875-10a1.875 1.875 0 1 1-3.75 0v-1.875h1.875A1.875 1.875 0 0 1 13.877 12"/>
</svg>
